X:1
T:Xavier, 77.77
T:Francis Henry Champneys, 1875
T:Xavier, 77.77
T:Public Domain
C:Francis Henry Champneys, 1875
Z:Public Domain
%%score ( 1 2 ) ( 3 4 )
L:1/8
M:none
K:Bb
V:1 treble 
V:2 treble 
V:3 bass 
V:4 bass 
V:1
 [DB]2 [B,F]2 [B,G]2 [B,E]2 | [B,C]2 [A,F]2 [B,D]4 | [Fd]2 [Gd]2 [Gc]2 F2 | [FA]2 [=EG]2 F4 | %4
 G2 [Gc]2 [F=B]2 [Ec]2 | [Dd]2 [FG]2 [Ee]4 | [Fc]2 [Fc]2 [Fd]2 F2 | [FG]2 [EA]2 [DB]4 |] %8
V:2
 x8 | x8 | x6 F2 | x4 F4 | G2 x6 | x8 | x6 F2 | x8 |] %8
V:3
 [B,,F,]2 [D,F,]2 E,2 [C,G,]2 | F,2 [F,,F,]2 [B,,F,]4 | B,2 [G,B,]2 [=E,B,]2 [F,A,]2 | %3
 C,2 z B, [F,A,]4 | [E,C]2 [E,C]2 [D,G,]2 [C,G,]2 | [=B,,G,]2 [G,,=B,]2 [C,C]4 | %6
 [F,A,]2 [A,,C]2 [B,,B,]2 [D,B,]2 | [E,D]2 [F,C]2 [B,,B,]4 |] %8
V:4
 x4 E,2 x2 | F,2 x6 | B,2 x6 | C3 C,2 x3 | x8 | x8 | x8 | x8 |] %8

